X:1
T:Wedding Bells
T:Wedding bells
T:Claude Boone
C:Claude Boone
Z:All Rights Reserved
L:1/4
M:4/4
K:Eb
V:1 treble 
%%MIDI program 4
V:1
 z2 z G |:"Eb" G G F G |"Bb7" A F D D |"Eb" F E3- | E3 G | G F G A |"Bb7" F E D F |"Eb" E4- | %8
w: I|have the in- v-|ta- tion that you|sent me|* you|want- ed me to|see you change your|name|
w: |planned a lit- tle|cot- tage in the|val- ley|* I|ev- en bought a|lit- tle band of|gold|
w: |fan- cy that I|see a bunch of|ros- es|* A|blos- som from an|orange tree in your|hair|
 E z2 E |"Ab" A A A B | c c B3/2 A/ |"Eb" G2 E2- | E3 E |"Bb7" G F F G | A F D F |"Eb" E4- | %16
w: * I|could- nt stand to|see you wed an-|oth- er||but I hope you're|hap- py just the|same|
w: * I|thought some day I'd|place it on your|fin- ger|* but|now the fu- ture|looks so dark and|cold|
w: |while the or- gan|plays I love you|tru- ly||just let me pre-|tend that I am|there|
"Eb7" E4 |"Ab" A"^Chorus:" A A B | c c B A |"Eb" G2 E2- |"Eb7" E3 G |"Bb7" G F F G | A F D F | %23
w: |Wed- ding bells are|ring- ing in the|cha- pel|* that|should be ring- ing|now for you and|
w: |Wed- ding bells are|ring- ing in the|cha- pel|* I|hear the chil- ren|laugh- ing now with|
w: |Wed- ding bells are|ring- ing in the|cha- pel||ev- er since the|day you set me|
"Eb" E4- |"Eb7" E3 E |"Ab" A A A B | c c B A |"Eb" G2 E2- | E3 G |"Bb7" G F F G | A F D F |12 %31
w: me||down the aisle with|some- on else you're|walk- ing|* so|wed- dding bells will|nev- er ring for|
w: glee|* at|home a- lone I|hang my head in|sor- row|* those|wed- ding bells will|nev- er ring for|
w: free|* A|knew some day that|you would wed an-|oth- er|* but|wed- ding bells will|nev- er ring for|
"Eb" E4- | E3 G :|3"Eb" E4- |"Ab""Eb" E4 |] %35
w: me.|* (2)I|||
w: me.|* (3)I|||
w: ||me||

